X: 10932
M: 6/8
L: 1/8
K: F
c |\
f2f g2a | g2f edc | f2f g2a | g3 gaf |\
ege dfd | c3 dcB | Acf age | c3- "^D.C."c2 |]
K: Cm
c2c c2d | _e2d c2d | _e2d c2=B | c3 G2G |\
c2c c2d | _e2d c2=B | c3- "^D.C."c2 |]
K: Bb


